X: 19322
T: Jack Gilder's Beard
R: barndance
M: 4/4
K: Dmajor
(3dcd fd AFDF|BG (3GFG G4|(3cBc ec BAFA|(3dfe (3dcB Aa^ga|
(3dcd fd AFDF|BG (3GFG G4|(3cBc ec BAFA|1 d2 A2 D2:|
|:fdAF Df^ef|gdBG Dgfg|eAfA gAeA|(3dfe (3dcB Aa^ga|
fdAF Df^ef|1 gdBA G4|a2 ^g2 =ge (3cBA|d2 A2 Da^ga:|
2 gdBG Db^ab|afge fdec|(3dcB (3AG/F/E D2||

